media/img/firefox/whatsnew/whatsnew144/relay-sticker.svg

<svg width="105" height="81" viewBox="0 0 105 81" fill="none" xmlns="http://www.w3.org/2000/svg">
<path d="M1 3.41722C1 2.08223 2.08223 1 3.41723 1H94.4661C95.8011 1 96.8833 2.08223 96.8833 3.41723V58.6106C96.8833 59.9456 95.8011 61.0278 94.4661 61.0278H3.41723C2.08223 61.0278 1 59.9456 1 58.6106V3.41722Z" fill="#F8F6F4" stroke="#333336" stroke-width="1.61148"/>
<path d="M2.00684 1.80495L46.7832 30.2466C48.1005 31.0834 49.7826 31.084 51.1006 30.2484L96.2787 1.60352" stroke="#333336" stroke-width="1.61148" stroke-linejoin="bevel"/>
<path d="M89.3654 42.5711C88.9862 42.4148 88.5629 42.4095 88.1848 42.5558C84.014 44.1697 80.0711 45.8825 76.1285 47.505C75.5231 47.7541 75.1278 48.3362 75.1219 48.9821C75.0823 53.3494 75.0704 59.1195 74.9521 63.1041C74.8407 66.8654 77.3855 71.0953 80.562 74.4653C82.1313 76.1302 83.8117 77.5388 85.3051 78.5243C86.052 79.0172 86.7397 79.3965 87.3333 79.6497C87.9401 79.9085 88.3926 80.0109 88.6854 80.0109C88.9894 80.0109 89.4526 79.9118 90.0687 79.6694C90.6722 79.4318 91.3722 79.077 92.1336 78.6173C93.6562 77.6978 95.3779 76.3862 97 74.8404C98.6228 73.2938 100.127 71.5316 101.229 69.7177C102.266 68.0105 102.92 66.303 103.026 64.7128L103.04 64.3966C103.116 60.1449 103.152 54.1013 103.201 49.4501C103.208 48.7935 102.817 48.1985 102.212 47.9438C98.0504 46.1938 94.1836 44.5582 89.3654 42.5711Z" fill="#00A6F9" stroke="#333336" stroke-width="1.61148"/>
<path d="M88.7832 42.6618L88.726 80.0111" stroke="#333336" stroke-width="1.61148" stroke-miterlimit="10"/>
</svg>

<svg xmlns="http://www.w3.org/2000/svg" width="105" height="81" fill="none" viewBox="0 0 105 81"><path fill="#f8f6f4" stroke="#333336" stroke-width="1.611" d="M1 3.417A2.417 2.417 0 0 1 3.417 1h91.05a2.417 2.417 0 0 1 2.416 2.417v55.194a2.417 2.417 0 0 1-2.417 2.417H3.417A2.417 2.417 0 0 1 1 58.61z"/><path stroke="#333336" stroke-linejoin="bevel" stroke-width="1.611" d="m2.007 1.805 44.776 28.442a4.03 4.03 0 0 0 4.318.001L96.279 1.604"/><path fill="#00a6f9" stroke="#333336" stroke-width="1.611" d="M89.365 42.571a1.6 1.6 0 0 0-1.18-.015c-4.171 1.614-8.114 3.327-12.056 4.949a1.62 1.62 0 0 0-1.007 1.477c-.04 4.367-.052 10.138-.17 14.122-.111 3.761 2.433 7.991 5.61 11.361 1.57 1.665 3.25 3.074 4.743 4.06.747.492 1.435.871 2.028 1.125.607.258 1.06.36 1.352.36.304 0 .768-.098 1.384-.34.603-.238 1.303-.593 2.065-1.053 1.522-.92 3.244-2.23 4.866-3.777 1.623-1.546 3.127-3.308 4.229-5.122 1.037-1.708 1.691-3.415 1.797-5.005l.014-.316c.076-4.252.112-10.296.161-14.947a1.62 1.62 0 0 0-.989-1.506c-4.162-1.75-8.028-3.386-12.847-5.373Z"/><path stroke="#333336" stroke-miterlimit="10" stroke-width="1.611" d="m88.783 42.662-.057 37.35"/></svg>
